X:1
T:By The Waters of Babylon
T:By The Waters of Babylon
T:Philip Hayes (1738 ?- 1797)
T:Psalm 137
T:Creative Commons Attribution 4.0 International (CC BY 4.0) Copyright © 2019 Provided to the Choral Public Domain Library (http://www.cpdl.org) by the Freshman Chorus of St. John's College of Annapolis. Edition may be freely distributed, duplicated, performed, or recorded. 
C:Philip Hayes (1738 ?- 1797)
Z:Psalm 137
Z:Creative Commons Attribution 4.0 International (CC BY 4.0) Copyright © 2019
Z:Provided to the Choral Public Domain Library (http://www.cpdl.org)
Z:by the Freshman Chorus of St. John's College of Annapolis.
Z:Edition may be freely distributed, duplicated, performed, or recorded.
Z:
L:1/8
M:4/4
K:Eb
V:1 treble 
V:1
"^I" (c3 B/A/ G2) A2 | (B3 A/G/) F2 G2 | (A3 G/F/) E2 F2 | G3 G C4 |"^II" e2 e2 e2 e2 | %5
w: By * * * the|wa * * ters, the|wa * * ters of|Ba- by- lon|We sat down and|
 (e2 d2) z2 _d2 | (_d2 c2) z2 c2 | (c2 =B2 c2) c2 |"^III" G3 A B2 c2 | F3 G A2 B2 | (E3 F G2) A2 | %11
w: wept, * and|wept, * and|wept, * * when|we re- mem- ber|thee, re- mem- ber|thee * * O|
 (E2 D2) C4 |] %12
w: Zi- * on.|

